svgs/lazada.svg

<?xml version="1.0" encoding="UTF-8" standalone="no"?>
<svg
   viewBox="0 0 24 24"
   width="24"
   height="24"
   version="1.1"
   id="svg44"
   sodipodi:docname="lazada.svg"
   inkscape:version="1.1.1 (3bf5ae0d25, 2021-09-20)"
   xmlns:inkscape="http://www.inkscape.org/namespaces/inkscape"
   xmlns:sodipodi="http://sodipodi.sourceforge.net/DTD/sodipodi-0.dtd"
   xmlns="http://www.w3.org/2000/svg"
   xmlns:svg="http://www.w3.org/2000/svg">
  <defs
     id="defs48" />
  <sodipodi:namedview
     id="namedview46"
     pagecolor="#ffffff"
     bordercolor="#666666"
     borderopacity="1.0"
     inkscape:pageshadow="2"
     inkscape:pageopacity="0.0"
     inkscape:pagecheckerboard="0"
     showgrid="false"
     inkscape:zoom="45.254834"
     inkscape:cx="7.5682523"
     inkscape:cy="14.794"
     inkscape:window-width="1920"
     inkscape:window-height="1009"
     inkscape:window-x="-8"
     inkscape:window-y="-8"
     inkscape:window-maximized="1"
     inkscape:current-layer="svg44" />
  <path
     id="path2"
     style="stroke-width:0.999999"
     d="m 6.2832031,3.9726562 c -0.04833,0 -0.095532,0.013583 -0.1367187,0.039063 L 2.3203125,6.3671875 5.7675781,8.2558594 v 0.8125 L 2,7.0019531 v 6.7636719 c 0,0.172385 0.087943,0.328967 0.234375,0.419922 l 9.412109,5.841797 v -5.13086 c 0.0026,4e-6 0.0052,4e-6 0.0078,0 0.237353,-0.0032 0.473449,-0.03603 0.703125,-0.09766 v 5.226563 l 9.408203,-5.839844 C 21.91207,14.094601 22,13.93801 22,13.765625 V 7.0078125 L 18.341797,9.0117188 H 16.863281 L 21.6875,6.3710938 17.853516,4.0117188 c -0.04119,-0.02548 -0.08815,-0.039061 -0.136719,-0.039063 -0.04881,0 -0.09677,0.013113 -0.138672,0.039063 L 13.921875,6.28125 C 13.344243,6.63983 12.679778,6.828125 12,6.828125 c -0.679777,0 -1.344243,-0.188295 -1.921875,-0.546875 L 6.421875,4.0117188 C 6.380445,3.9860087 6.3320101,3.9726563 6.2832031,3.9726562 Z M 6.6152344,8.71875 h 0.8808594 v 4.662109 H 9.3125 v 0.708985 H 6.6152344 Z m 4.7617186,0.9746094 c 0.33494,0 0.627661,0.067196 0.875,0.2011718 0.252493,0.1288228 0.452128,0.2905178 0.601563,0.4863278 V 9.7636719 h 0.888672 v 4.2578121 h -0.888672 v -0.634765 c -0.149435,0.200964 -0.351729,0.367977 -0.609375,0.501953 -0.257645,0.133975 -0.551074,0.203125 -0.88086,0.203125 -0.365857,0 -0.701837,-0.09379 -1.005859,-0.279297 C 10.0534,13.621843 9.811211,13.360331 9.6308594,13.025391 9.4556599,12.685299 9.3671875,12.300739 9.3671875,11.873047 c 0,-0.427692 0.088473,-0.806933 0.2636719,-1.136719 C 9.8112112,10.406541 10.0534,10.151055 10.357422,9.9707031 10.666597,9.7851976 11.005943,9.6933594 11.376953,9.6933594 Z m 2.856254,0.068359 H 17.385 v 0.7187506 l -2.132262,2.822265 H 17.385 v 0.716797 H 14.233207 V 13.302734 L 16.373,10.480469 H 14.233207 Z M 11.5625,10.458984 c -0.226728,0 -0.437001,0.05656 -0.632812,0.169922 -0.195812,0.108211 -0.354846,0.269905 -0.478516,0.486328 -0.118512,0.21127 -0.177735,0.464096 -0.177734,0.757813 0,0.293715 0.05922,0.551862 0.177734,0.773437 0.12367,0.221575 0.282705,0.391249 0.478516,0.509766 0.200964,0.113364 0.411237,0.169922 0.632812,0.169922 0.226728,0 0.438955,-0.05656 0.634766,-0.169922 0.195811,-0.113364 0.352186,-0.279671 0.470703,-0.496094 0.123668,-0.221575 0.185547,-0.477768 0.185547,-0.771484 0,-0.293717 -0.06188,-0.549203 -0.185547,-0.765625 C 12.549452,10.906624 12.393077,10.74227 12.197266,10.628906 12.001455,10.515539 11.789228,10.458984 11.5625,10.458984 Z"
     sodipodi:nodetypes="scccccscccccccscccccsccsccscccccccscccccccssccsccscccccccccccsccsccsscscss" />
</svg>

<?xml version="1.0" encoding="UTF-8" standalone="no"?>
<svg
   viewBox="0 0 24 24"
   width="24"
   height="24"
   version="1.1"
   id="svg44"
   sodipodi:docname="lazada.svg"
   inkscape:version="1.1.1 (3bf5ae0d25, 2021-09-20)"
   xmlns:inkscape="http://www.inkscape.org/namespaces/inkscape"
   xmlns:sodipodi="http://sodipodi.sourceforge.net/DTD/sodipodi-0.dtd"
   xmlns="http://www.w3.org/2000/svg"
   xmlns:svg="http://www.w3.org/2000/svg">
  <defs
     id="defs48" />
  <sodipodi:namedview
     id="namedview46"
     pagecolor="#ffffff"
     bordercolor="#666666"
     borderopacity="1.0"
     inkscape:pageshadow="2"
     inkscape:pageopacity="0.0"
     inkscape:pagecheckerboard="0"
     showgrid="false"
     inkscape:zoom="22.627417"
     inkscape:cx="8.9935144"
     inkscape:cy="12.175495"
     inkscape:window-width="1920"
     inkscape:window-height="1009"
     inkscape:window-x="-8"
     inkscape:window-y="-8"
     inkscape:window-maximized="1"
     inkscape:current-layer="svg44" />
  <path
     id="path2"
     style="stroke-width:0.999999"
     d="M 6.2832031 3.9726562 C 6.2348731 3.9726562 6.1876714 3.9862387 6.1464844 4.0117188 L 2.3203125 6.3671875 L 5.7675781 8.2558594 L 5.7675781 9.0683594 L 2 7.0019531 L 2 13.765625 C 2 13.93801 2.0879426 14.094592 2.234375 14.185547 L 11.646484 20.027344 L 11.646484 14.896484 A 2.9380028 3.0194724 0 0 0 11.654297 14.896484 A 2.9380028 3.0194724 0 0 0 12.357422 14.798828 L 12.357422 20.025391 L 21.765625 14.185547 C 21.912057 14.094597 22 13.93801 22 13.765625 L 22 7.0078125 L 18.341797 9.0117188 L 16.863281 9.0117188 L 21.6875 6.3710938 L 17.853516 4.0117188 C 17.812326 3.9862388 17.765369 3.9726563 17.716797 3.9726562 C 17.667987 3.9726562 17.620027 3.9857688 17.578125 4.0117188 L 13.921875 6.28125 C 13.344243 6.63983 12.679778 6.828125 12 6.828125 C 11.320223 6.828125 10.655757 6.63983 10.078125 6.28125 L 6.421875 4.0117188 C 6.380445 3.9860087 6.3320101 3.9726563 6.2832031 3.9726562 z M 6.515625 8.71875 L 7.3964844 8.71875 L 7.3964844 13.380859 L 9.2128906 13.380859 L 9.2128906 14.089844 L 6.515625 14.089844 L 6.515625 8.71875 z M 8.1386719 9.5566406 L 9.2480469 10.164062 A 2.9380028 3.0194724 0 0 0 8.9160156 10.794922 L 8.1386719 10.367188 L 8.1386719 9.5566406 z M 11.476562 9.6933594 C 11.811502 9.6933594 12.104223 9.7605557 12.351562 9.8945312 C 12.604055 10.023354 12.80369 10.185049 12.953125 10.380859 L 12.953125 9.7636719 L 13.841797 9.7636719 L 13.841797 14.021484 L 12.953125 14.021484 L 12.953125 13.386719 C 12.80369 13.587683 12.601396 13.754696 12.34375 13.888672 C 12.086105 14.022647 11.792677 14.091797 11.462891 14.091797 C 11.097034 14.091797 10.761053 13.998006 10.457031 13.8125 C 10.153009 13.621843 9.9108206 13.360331 9.7304688 13.025391 C 9.5552694 12.685299 9.4667969 12.300739 9.4667969 11.873047 C 9.4667969 11.445355 9.5552698 11.066114 9.7304688 10.736328 C 9.9108206 10.406541 10.153009 10.151055 10.457031 9.9707031 C 10.766206 9.7851976 11.105552 9.6933594 11.476562 9.6933594 z M 14.533203 9.7617188 L 17.484375 9.7617188 L 17.484375 10.480469 L 15.552734 13.302734 L 17.484375 13.302734 L 17.484375 14.019531 L 14.533203 14.019531 L 14.533203 13.302734 L 16.472656 10.480469 L 14.533203 10.480469 L 14.533203 9.7617188 z M 11.662109 10.458984 C 11.435381 10.458984 11.225108 10.515541 11.029297 10.628906 C 10.833486 10.737117 10.674451 10.898811 10.550781 11.115234 C 10.432269 11.326504 10.373047 11.57933 10.373047 11.873047 C 10.373047 12.166762 10.432265 12.424909 10.550781 12.646484 C 10.674451 12.868059 10.833486 13.037733 11.029297 13.15625 C 11.230261 13.269614 11.440534 13.326172 11.662109 13.326172 C 11.888837 13.326172 12.101064 13.269614 12.296875 13.15625 C 12.492686 13.042886 12.649061 12.876579 12.767578 12.660156 C 12.891246 12.438581 12.953125 12.182388 12.953125 11.888672 C 12.953125 11.594955 12.891248 11.339469 12.767578 11.123047 C 12.649061 10.906624 12.492686 10.74227 12.296875 10.628906 C 12.101064 10.515539 11.888837 10.458984 11.662109 10.458984 z " />
</svg>
